X: 1
T: Helen Of Kirkconnel
M: 4/4
L: 1/8
R: barndance
K: Dmaj
DD E| (F4 F3) (G/F/)| (E6G F)| D6 E D-| D4- D AB d|
e6 c d-| (d4 d) (ABA)| A6 B A-|A4- A FD E|
(F4 F3) (G/F/)| (E6G F)|D6 E D-| D6 (AB)|
(B4 B3) E|(F3 G/F/) E2 D2| D8| z4 z||
